!!!COM: Bach, Johann Sebastian
!!!CDT: 1685/02/21/-1750/07/28/
!!!OTL@@DE:	O Haupt voll Blut und Wunden
!!!SCT: BWV 244/54
!!!PC#:	74
!!!AGN: chorale
**harm	**kern	**kern	**kern	**kern
*	*ICvox	*ICvox	*ICvox	*ICvox
*	*Ibass	*Itenor	*Ialto	*Isoprn
*	*I"Bass	*I"Tenor	*I"Alto	*I"Soprano
*>[A,A,B]	*>[A,A,B]	*>[A,A,B]	*>[A,A,B]	*>[A,A,B]
*>norep[A,B]	*>norep[A,B]	*>norep[A,B]	*>norep[A,B]	*>norep[A,B]
*>A	*>A	*>A	*>A	*>A
*	*	*oclefC4	*oclefC3	*oclefC1
*	*clefF4	*clefGv2	*clefG2	*clefG2
*k[b-]	*k[b-]	*k[b-]	*k[b-]	*k[b-]
*F:	*F:	*F:	*F:	*F:
*M4/4	*M4/4	*M4/4	*M4/4	*M4/4
*met(c)	*met(c)	*met(c)	*met(c)	*met(c)
*MM100	*MM100	*MM100	*MM100	*MM100
vi	4d	4d	4f	4a
=1	=1	=1	=1	=1
IV	4B-	4d	4f	4dd
I6	4A	4f	4a	4cc
ii	8GL	8gL	8dL	8b-L
viio6	8GJ	8gJ	8eJ	8b-J
I	4F	4c	4f	4a
=2	=2	=2	=2	=2
ii65	4BB-	4d	4f	4g
V	4C	4c	4e	4g
I;	4F;	4c;	4f;	4a;
d:V6	4C#	4e	4a	4ee
=3	=3	=3	=3	=3
i	4D	4d	4a	4ff
i6	4F	4d	4a	4ff
V	4A	4c#	4a	4ee
V7	4AA	4c#	4g	4ee
=4	=4	=4	=4	=4
i;	2.D;	2.A;	2.f;	2.dd;
*>B	*>B	*>B	*>B	*>B
i	4D	4d	4a	4ff
=5	=5	=5	=5	=5
F:viio6	4G	4B-	4g	4ee
I6	4A	4c	4f	4cc
IV	4B-	4B-	4f	4dd
B-:viio6/V	4G	4B-	4b-	4ee
=6	=6	=6	=6	=6
V(64)	2F	2d	2b-	2ff
V;	4F;	4c;	4a;	4ff;
V7	4F	4e-	4a	4cc
=7	=7	=7	=7	=7
I7	4B-	4d	4a	4dd
g:V65	4F#	4d	4a	4cc
i	4G	4d	4g	4b-
i	4GG	4d	4g	4b-
=8	=8	=8	=8	=8
V;	2.D;	2.d;	2.f#;	2.a;
C:V65	4BB	4d	4g	4ff
=9	=9	=9	=9	=9
I	4C	4c	4g	4ee
I	4c	4e	4cc	4gg
IV6	4A	4f	4cc	4ff
I64	4G	4g	4cc	4ee
=10	=10	=10	=10	=10
ii65	4F	4a	4cc	4dd
V	4G	4g	4b	4dd
I;	4C;	4g;	4cc;	4ee;
F:I	4F	4c	4f	4a
=11	=11	=11	=11	=11
ii	8GL	8B-L	8dL	8b-L
viio6	8GJ	8B-J	8eJ	8b-J
I6	4A	4c	4f	4a
V(54)	4c	4c	4f	4g
V	4C	4G	4e	4cc
=12	=12	=12	=12	=12
I;	2.F;	2.c;	2.f;	2.a;
==	==	==	==	==
*-	*-	*-	*-	*-
!!!YOR1: 371 vierstimmige Choralges&auml;nge von Johann Sebastian Bach, 
!!!YOR2: 4th ed. by Alfred D&ouml;rffel (Leipzig: Breitkopf und H&auml;rtel, 
!!!YOR2: c.1875). 178 pp. Plate "V.A.10".  reprint: J.S. Bach, 371 Four-Part 
!!!YOR4: Chorales (New York: Associated Music Publishers, Inc., c.1940).
!!!SMS: B&H, 4th ed, Alfred D&ouml;rffel, c.1875, plate V.A.10
!!!EED:  Craig Stuart Sapp
!!!EEV:  2009/05/22
